assets/img/microillustration/info.svg

<?xml version="1.0" encoding="UTF-8"?>
<svg viewBox="0 0 106 106" version="1.1" xmlns="http://www.w3.org/2000/svg" xmlns:xlink="http://www.w3.org/1999/xlink">
    <title>4. Elements_Microillustrations/Info</title>
    <g id="4.-Elements_Microillustrations/Info" stroke="none" stroke-width="1" fill="none" fill-rule="evenodd">
        <path d="M52.9990559,11 C76.1954953,11 95,29.804082 95,53 C95,76.195918 76.1954953,95 52.9990559,95 C29.8026165,95 11,76.195918 11,53 C11,29.804082 29.8026165,11 52.9990559,11 Z M52.9991683,16 C32.5642098,16 16,32.5655008 16,53 C16,73.4344992 32.5642098,90 52.9991683,90 C73.4341268,90 90,73.4344992 90,53 C90,32.5655008 73.4341268,16 52.9991683,16 Z" id="Combined-Shape" fill="#0059C4"></path>
        <circle id="Oval" fill="#DFF0FF" cx="53" cy="53" r="33"></circle>
        <path d="M53.3631436,41.596206 C54.1436314,41.596206 54.736224,41.3794038 55.1409214,40.9457995 C55.5456188,40.5121951 55.7479675,39.9701897 55.7479675,39.3197832 C55.7479675,38.6693767 55.5456188,38.1201445 55.1409214,37.6720867 C54.736224,37.2240289 54.1436314,37 53.3631436,37 C52.5826558,37 51.9936766,37.2240289 51.596206,37.6720867 C51.1987353,38.1201445 51,38.6693767 51,39.3197832 C51,39.9701897 51.1987353,40.5121951 51.596206,40.9457995 C51.9936766,41.3794038 52.5826558,41.596206 53.3631436,41.596206 Z M55.3360434,69 L55.3360434,45.5420054 L51.3252033,45.5420054 L51.3252033,69 L55.3360434,69 Z" id="i" fill="#000000" fill-rule="nonzero"></path>
    </g>
</svg>

<?xml version="1.0" encoding="UTF-8"?>
<svg version="1.1" viewBox="0 0 106 106" xmlns="http://www.w3.org/2000/svg">
<title>4. Elements_Microillustrations/Info</title>
<g fill-rule="evenodd">
<path d="m52.999 11c23.196 0 42.001 18.804 42.001 42s-18.805 42-42.001 42-41.999-18.804-41.999-42 18.803-42 41.999-42zm1.124e-4 5c-20.435 0-36.999 16.566-36.999 37s16.564 37 36.999 37 37.001-16.566 37.001-37-16.566-37-37.001-37z" fill="#0059C4"/>
<circle cx="53" cy="53" r="33" fill="#DFF0FF"/>
<path d="m53.363 41.596c0.78049 0 1.3731-0.2168 1.7778-0.65041 0.4047-0.4336 0.60705-0.97561 0.60705-1.626s-0.20235-1.1996-0.60705-1.6477-0.99729-0.67209-1.7778-0.67209-1.3695 0.22403-1.7669 0.67209c-0.39747 0.44806-0.59621 0.99729-0.59621 1.6477s0.19874 1.1924 0.59621 1.626c0.39747 0.4336 0.98645 0.65041 1.7669 0.65041zm1.9729 27.404v-23.458h-4.0108v23.458h4.0108z" fill-rule="nonzero"/>
</g>
</svg>
